X:1
T:C Major Stephen Jenks, 1803
T:Isaac Watts, 1707 (Hymn 9, Book 2)     86. 86. (C. M.)
T:Edington
T:Transcribed from The American Compiler, 1803.
%%score [ 1 2 3 4 ]
L:1/8
Q:1/4=120
M:4/4
K:C
V:1 treble nm="Tr." snm="Tr."
V:2 treble nm="C." snm="C."
V:3 treble-8 nm="T." snm="T."
V:4 bass nm="B." snm="B."
V:1
 c4 | G3 G G3 c | A2 A2 d3 d | e3 d c2 A2 | B4 z2 c2 | e3 c B2 G2 | A2 c2 d4 | e4 c2 A2 | %8
w: 1.~A-|las! and did my|Sa- vior bleed? And|did my sove- reign|die? Would|he de- vote that|sa- cred head|For such a|
w: 2.~Thy|bo- dy slain, sweet|Je- sus, thine, And|bathed in its own|blood, While|all ex- posed to|wrath di- vine|The glo- rious|
 B2 d2 G4- | G6 |] %10
w: worm as I?~|_|
w: suf- ferer stood!~|_|
V:2
 E4 | E3 E E3 G | A2 A2 G3 G | G3 G E2 D2 | D4 z2 E2 | G3 A G2 E2 | A2 A2 B4 | c4 G2 A2 | %8
w: 3.~Was|it for crimes that|I had done He|groaned up- on the|tree? A-|ma- zing pi- ty!|grace un- known!|And love be-|
w: 4.~Well|might the sun in|dark- ness hide, And|shut his glo- ries|in, When|God, the migh- ty|Ma- ker, died,|For man, the|
 G2 D2 E4- | E6 |] %10
w: yond de- gree!~|_|
w: crea- ture's sin.~|_|
V:3
 G4 | c3 d c3 e | c2 A2 G3 G | c3 G c2 ef | g4 z2 G2 | c3 d c2 e2 | c2 A2 G4 | g4 e2 c2 | %8
w: 5.~Thus|might I hide my|blu- shing face, While|his dear cross ap- *|pears; Dis-|solve my heart in|thank- ful- ness,|And melt my|
w: 6.~But|drops of grief can|ne'er re- pay The|debt of love I *|owe: Here,|Lord, I give my-|self a- way:|'Tis all that|
 e2 d2 c4- | c6 |] %10
w: eyes to tears.~|_|
w: I can do.~|_|
V:4
 C,4 | C,3 G,, C,3 C, | D,2 D,2 G,3 G, | C3 B, A,2 D,2 | G,4 z2 C,2 | C,3 F, E,2 C,2 | %6
 F,2 D,2 G,4 | C4 E,2 A,2 | %8
"^__________________________________________\nEdited by B. C. Johnston, 2016\nMeasure 8, Bass: changed from C-D-F to C-E-A." G,2 G,,2 C,4- | %9
 C,6 |] %10

